svg/power_redundancy.svg

<svg width="24" height="24" viewBox="0 0 24 24" xmlns="http://www.w3.org/2000/svg">
<path fill-rule="evenodd" clip-rule="evenodd" d="M16 17V9C16 7.89545 15.1046 7 14 7H13V5H14C16.2092 5 18 6.79085 18 9V17H20L17 20L14 17H16ZM8 7V15C8 16.1046 8.89545 17 10 17H11V19H10C7.79085 19 6 17.2092 6 15V7H4L7 4L10 7H8Z" />
</svg>

<svg width="24" height="24" viewBox="0 0 24 24" xmlns="http://www.w3.org/2000/svg"><path fill-rule="evenodd" clip-rule="evenodd" d="M16 17V9a2 2 0 0 0-2-2h-1V5h1a4 4 0 0 1 4 4v8h2l-3 3-3-3h2zM8 7v8a2 2 0 0 0 2 2h1v2h-1a4 4 0 0 1-4-4V7H4l3-3 3 3H8z"/></svg>
